X:1
T:Glorious Freedom
T:Glorious Freedom
T:Joseph Lincoln Hall
T:Haldor Lillenas, 1917
T:Public Domain Courtesy of the Cyber Hymnal™
T:Public Domain Courtesy of the Cyber Hymnal™
C:Joseph Lincoln Hall
Z:Public Domain
Z:Courtesy of the Cyber Hymnal™
%%score ( 1 2 ) ( 3 4 )
L:1/8
Q:1/4=110
M:9/8
K:Db
V:1 treble 
V:2 treble 
V:3 bass 
V:4 bass 
V:1
 [FA][GB][FA] | [DF]3 D3 [CE][B,D][CE] | [DF]3 [FA]3 [FA][GB][FA] | [DF]3 D3 [DF][DE]D | %4
w: 1.~Once I was|bound by sin’s gall- ing|fet- ters; Chained like a|slave, I strug- gled in|
w: 2.~Free- dom from|all the car- nal af-|fect- ions; Free- dom from|en- vy, hat- red and|
w: 3.~Free- dom from|pride and all sin- ful|fol- lies; Free- dom from|love and glit- ter of|
w: 4.~Free- dom from|fear with all of its|tor- ments; Free- dom from|care with all of its|
 [CE]6 [CA][CB][CA] | [DF]3 D3 [CE][B,D][CE] | [DF]3 [FA]3 [Bd][Ac][GB] | %7
w: vain. But I re-|ceived a glo- ri- ous|free- dom, When Je- sus|
w: strife; Free- dom from|vain and world- ly am-|bi- tions; Free- dom from|
w: gold; Free- dom from|e- vil tem- per and|an- ger; Glo- ri- ous|
w: pain; Free- dom in|Christ, my bless- èd Re-|deem- er— He who has|
 [FA]3 [DF]3 [CE][B,D][CE] x6 | [A,D]6 ||"^Refrain" [Fd][Fd][Fd] x6 | [Fd]3 [FA]3 [Ad][Ad][Ad] | %11
w: broke my fet- ters in|twain.|||
w: all that sad- dened my|life!|||
w: free- dom, rap- ture un-|told!|||
w: rent my fet- ters in|twain.|||
 [Bd]3 [GB]3 [FA][GB][FA] | [DF]3 D3 [DF][DE]D | [CE]6 [CA][CB][CA] | [DF]3 D3 [CE][B,D][CE] | %15
w: ||||
w: ||||
w: ||||
w: ||||
 [DF]3 [FA]3 [Bd][Ac][GB] x6 | [FA]3 [DF]3 [CE][B,D][CE] | [A,D]6 |] %18
w: |||
w: |||
w: |||
w: |||
V:2
 x3 | x3 D3 x3 | x9 | x3 D3 D x2 | x9 | x3 D3 x3 | x9 | x15 | x6 || x9 | x9 | x9 | x3 D3 x3 | x9 | %14
 x3 D3 x3 | x15 | x9 | x6 |] %18
V:3
 [D,D][D,D][D,D] | [D,A,]3 [D,F,]3 [A,,G,][B,,F,][A,,G,] | [D,A,]3 [D,D]3 [D,D][D,D][D,D] | %3
w: ~ ~ ~|~ ~ ~ ~ ~|~ ~ ~ ~ ~|
 [D,A,]3 [D,F,]3 [E,=G,][E,G,][E,G,] | [A,,A,]6 [A,,G,][A,,G,][A,,G,] | %5
w: ~ ~ ~ ~ ~|~ ~ ~ ~|
 [D,A,]3 [D,F,]3 [A,,G,][B,,F,][A,,G,] | [D,A,]3 [D,D]3 [G,D][G,D][G,D] | %7
w: ~ ~ ~ ~ ~|~ ~ ~ ~ ~|
 [A,D]3 A,3 [A,,G,][B,,F,][A,,G,] [D,F,]6 | [D,A,][D,A,][D,A,] x3 || %9
w: ~ ~ ~ ~ ~ ~|Glor- i- ous|
 [D,A,]3 [D,D]3 [F,D][F,D][F,D] | [G,D]3 [G,D]3 [D,D][D,D][D,D] | %11
w: free- dom! Won- der- ful|free- dom! No more in|
 [D,A,]3 [D,F,]3 [E,=G,][E,G,][E,G,] | [A,,A,]6 [A,,G,][A,,G,][A,,G,] | %13
w: chains of sin I re-|pine! Je- sus the|
 [D,A,]3 [D,F,]3 [A,,G,][B,,F,][A,,G,] | [D,A,]3 [D,D]3 [G,D][G,D][G,D] | %15
w: glo- rious E- man- ci-|pat- or— Now and for-|
 [A,D]3 A,3 [A,,G,][B,,F,][A,,G,] [D,F,]6 | x9 | x6 |] %18
w: ev- er He shall be mine.|||
V:4
 x3 | x9 | x9 | x9 | x9 | x9 | x9 | x3 A,3 x9 | x6 || x9 | x9 | x9 | x9 | x9 | x9 | x3 A,3 x9 | %16
 x9 | x6 |] %18

